X: 2
T: Paddy Fahey's
R: reel
M: 4/4
L: 1/8
K: Cmaj
|: GFEG FECD | EFGA _B3 c | dcBd cBG2 |A/B/cdf ecdB | 
GFE/F/G FECD | EFGA _B3 c |dcBd cBGE |1 FDB,D C4 :|2FDB,D C2 EG ||
|: cdef gcac | gcec BGG_B | AFFE F_B,DF | EGcd BGFD |
Gc ~c2 gcac | gcec BGG_B | AFFE FAdc |1 BGFD C2 EG :|2 BGFD C4 ||

composer: Paddy Fahey
